!!!!SEGMENT: pl-wtm--1127-3625--001-003_rozycki-ludomir--4-impromptus-op-6-3.krn
!!!cenid: 19xx:146
!!!COM: Różycki, Ludomir
!!!COM-rismID: pe50045573
!!!CDT: 1883-1953
!!!CNT: Polish
!!!GTL: 4 Impromptus op. 6
!!!OTL: 3.
!!!OMV: 003
!!!PDT: 1924
!!!AGN:
!!!YEC: Copyright 2022 Narodowy Instytut Fryderyka Chopina (https://polishscores.org)
!!!YEM: License CC-BY-4.0 (https://creativecommons.org/licenses/by/4.0)
!!!SMS-siglum: PL-Wtm
!!!SMS-shelfmark: 1127 3625
!!!SMS-variant:
!!!SMS-altvar:
!!!SMS-shelfwork: 001-003 G
!!!NIFC-rismSourceID: 1001192259
!!!NIFC-rismChildID: 1001192259
!!!NIFC-islandoraID: pl-wtm:82111
!!!URL-pdf-islandora: https://repozytorium.nifc.pl/islandora/object/pl-wtm%3A82111/datastream/PDF/view
!!!URL-scan: https://polish.musicsources.pl/pl/lokalizacje/galeria/druki-muzyczne/18461/6 @EN{Scan on Polish Music Sources Website} @PL{Skany w portalu Dziedzictwo Muzyki Polskiej w otwartym dostępie}
!!!IIIF:
!!!ONB-nifc:
!!!AIN: 1 piano
!!!key: A
**kern	**fing	**kern	**fing	**dynam	**kern
*part1	*	*part1	*	*part1	*part1
*staff3	*	*staff2	*	*staff2/3	*staff1
*group1	*	*group1	*	*group1	*group1
*ICklav	*	*ICklav	*	*	*ICklav
*Ipiano	*	*Ipiano	*	*	*Ipiano
*I"	*	*I"PIANO.	*	*	*I"
*	*	*I'	*	*	*
*cleff$	*	*clefG2	*	*	*clefG2
*k[f#c#g#]	*	*k[f#c#g#]	*	*	*k[f#c#g#]
*A:	*	*A:	*	*	*A:
*M3/4	*	*M3/4	*	*	*M3/4
=1	=1	=1	=1	=1	=1
*^	*	*	*	*	*
*clefG2	*	*	*	*	*	*
*ped	*	*below	*	*	*	*
!!LO:TX:a:B:t=Allegretto. [quarter] = 132
!!LO:TX:a:t=P:problem:klucza wiolinowy dopiero przed pierwszą nutą	!	!	!	!	!	!
2.a/	(>4a\	1	8r	.	pp	2.ryy
.	.	.	(8ccc#\L	5	.	.
.	8e\L	2	8cc#\	1	.	.
.	8c#\	3	8ff#\	3	.	.
*Xped	*	*	*	*	*	*
.	8A\	5	8ee\	.	.	.
.	8G#\J)	4	8cc#\J	.	.	.
*clefF4	*	*	*	*	*	*
=2	=2	=2	=2	=2	=2	=2
*ped	*	*	*	*	*	*
!	!LO:N:vis=2	!	!	!	!	!
2F#/	(>8F#\L	5	4fff#\	5	.	2.ryy
.	8c#\	3	.	.	.	.
.	8e\	2	12eee\L	.	.	.
.	.	.	12ccc#\	.	.	.
.	8a\J)	1	.	.	.	.
.	.	.	12aa\J	1	.	.
*ped	*Xtuplet	*	*	*	*	*
4C#/	(>12C#\L	5	8ff#\L	2	.	.
.	12A\	2	.	.	.	.
.	.	.	[8gg#\J	.	.	.
.	12e\J)	1	.	.	.	.
=3	=3	=3	=3	=3	=3	=3
*ped	*	*	*	*	*	*
!	!LO:N:vis=2	!	!	!	!	!
(2BB/	8BB\L	.	8gg#\L]	.	.	2.ryy
.	8F#\	3	8bb\	.	.	.
.	8A\	.	8aa\	.	.	.
.	8d\J	1	8ff#\J	.	.	.
*Xped	*	*	*	*	*	*
8c#\L	4ryy	2	8ee\L	.	.	.
8B#X\J	.	.	(<[8ee#XJ [<8cc# 8g#X\)	1 3 5	.	.
*v	*v	*	*	*	*	*
!!LO:LB:g=original
=4	=4	=4	=4	=4	=4
*ped	*	*	*	*	*
8Bn\)	.	8ee#]L 8cc#] 8g#\)	.	.	2.ryy
(4EE/	5	(8ff# 8dd 8a\	4	.	.
.	.	8aa\	.	.	.
*Xped	*	*	*	*	*
4GG#/	3	8ff#J 8dd 8a\	.	.	.
.	.	4ee#X 4cc# 4f##X\)	.	.	.
8AA#X/	.	.	.	.	.
=5	=5	=5	=5	=5	=5
!LO:TX:t=P:problem:łuczek pod palcowaniem	!	!	!	!	!
8BB/	15	8r	.	.	2.ryy
4F#\	3	(8ff#L 8dd 8a\	.	.	.
.	.	8aa\	.	.	.
4G#\	.	8ff#J 8dd 8a\	.	.	.
.	.	4ee#X 4cc# 4f##X\)	.	.	.
*	*above	*	*	*	*
!LO:TX:t=P:problem:łuk i  kreska między oznaczeniami palcowania	!	!	!	!	!
(8A#X\	1	.	.	.	.
=6	=6	=6	=6	=6	=6
4.B\))	1	8r	.	.	2.ryy
.	.	(8ff# 8dd 8a\	3	.	.
.	.	4.ddd 4.ff# 4.dd\	.	.	.
*clefG2	*below	*	*	*	*
(8a#X/	3	.	.	.	.
4b/)	.	.	.	.	.
.	.	8ccc# 8ee#X 8cc#\	.	.	.
=7	=7	=7	=7	=7	=7
*	*	*^	*	*	*
8r	.	4cccn 4een 4ccn\)	4ryy	.	.	2.ryy
(8a#X/L	.	.	.	.	.	.
*	*	*v	*v	*	*	*
*	*	*8va	*	*	*
*	*	*^	*	*	*
8an/	1	2ddd/	(>4fff# 4ff#\	.	.	.
8g#/	.	.	.	.	.	.
8f#/	.	.	4ggg# 4gg#\	.	.	.
8e/J	4	.	.	.	.	.
*	*	*v	*v	*	*	*
!!LO:LB:g=original
=8	=8	=8	=8	=8	=8
*^	*	*	*	*	*
*ped	*	*	*	*	*	*
!	!	!	!LO:TX:b:i:t=quasi campanelli	!	!	!
8r	2c#\)	.	4eeee 4ggg# 4eee'\)	.	.	2.ryy
8dd#X 8a 8e/	.	4	.	.	.	.
8r	.	.	4aaa 4fff# 4aa'\	.	.	.
8ee 8a 8e/	.	.	.	.	.	.
*ped	*	*	*	*	*	*
8r	4B\	.	8ddddL 8eee 8ddd'\	.	.	.
8ddn 8g# 8e/	.	4	8ggg#J 8ddd 8gg#'\	.	.	.
=9	=9	=9	=9	=9	=9	=9
*ped	*	*	*	*	*	*
8r	2c#\	.	4eeee 4ggg# 4eee'\	.	.	2.ryy
8dd#X 8a 8e/	.	4	.	.	.	.
8r	.	.	4aaa 4fff# 4aa'\	.	.	.
8ee 8a 8e/	.	.	.	.	.	.
*ped	*	*	*	*	*	*
8r	4B\	.	8ddddL 8eee 8ddd'\	.	.	.
8ddn 8g# 8e/	.	4	8ggg#J 8ddd 8gg#'\	.	.	.
*v	*v	*	*	*	*	*
=10	=10	=10	=10	=10	=10
*ped	*	*	*	*	*
(8A/L	.	8r	.	.	2.ryy
8e/	.	8cccc#L 8fff# 8ccc#'\	1 2 5	.	.
8a/	.	8aaa 8eee 8aa'\	1 3 5	.	.
8cc#/J)	.	8fff# 8ccc# 8ff#'\	1 2 5	.	.
*ped	*	*	*	*	*
(8G#/L	.	8bbb 8fff# 8bb'\	1 3 5	.	.
8bJ 8e/)	1 2	8eeeJ 8bb 8ee'\	.	.	.
*clefF4	*	*	*	*	*
!!LO:LB:g=original
=11	=11	=11	=11	=11	=11
*ped	*	*	*	*	*
(8F#\L	.	8aaa:L 8eee: 8ccc#: 8aa:\	.	.	2.ryy
8c#\	3	8ggg#J 8gg#\	.	.	.
8e\	.	4.fff# 4.ff#\	.	.	.
8a\J)	1	.	.	.	.
*ped	*	*	*	*	*
8BB'\L	.	.	.	.	.
8aJ 8d#X 8B'\	4	8ggg# 8gg#\	.	.	.
*	*	*X8va	*	*	*
=12	=12	=12	=12	=12	=12
*ped	*	*	*	*	*
(8E\L	5	2eee: 2ee:\	.	.	2.ryy
8B\	2	.	.	.	.
8e\	1	.	.	.	.
8g#\J)	2	.	.	.	.
*Xped	*	*	*	*	*
8r	.	(>[4e/	1	.	.
(8d#X\	3	.	.	.	.
=13	=13	=13	=13	=13	=13
4.dn\	1	8e/L]	.	<	2.ryy
.	.	8f##XJ 8d#X/	2 3	.	.
.	.	4g# 4e/	1 4	.	.
8c#\L	.	.	.	.	.
8cn\	.	8aL 8fn/	1 2	.	.
8B\J)	.	8ddn/J	.	[[	.
!!LO:PB:g=original
=14	=14	=14	=14	=14	=14
*ped	*	*	*	*	*
(8EE-X\L	5	2ee-X: 2e-X:/)	.	.	2.ryy
8BB-X\	3	.	.	.	.
8E-X\	2	.	.	.	.
8B-X\J)	1	.	.	.	.
*Xped	*	*	*	*	*
!	!	!LO:TX:a:i:t=m.d.	!	!	!
8r	.	([4En</	1	.	.
8D#X\	2	.	.	.	.
=15	=15	=15	=15	=15	=15
4.Dn\	1	8E</L]	.	.	2.ryy
.	.	8F##X<J 8D#X</	2 3	.	.
.	.	4G#< 4E</	1 4	.	.
8C#\L	.	.	.	.	.
8Cn\	.	8A<L 8Fn</	1 2	.	.
[8BB\J	.	8dn</J	5	.	.
=16	=16	=16	=16	=16	=16
*ped	*	*	*	*	*
8BB\]	.	4d#X< 4B< 4F#X</)	4	<	2.ryy
4GGn 4GGGn\	.	.	.	.	.
*ped	*	*	*	*	*
.	.	4e< 4B-X< 4E<~/	.	.	.
4CCn 4CCCn\	.	.	.	.	.
*ped	*	*	*	*	*
.	.	4f##X< 4d#X< 4A<~/	1 2 4	.	.
[>8BBn [8BBBn\	.	.	.	.	.
=17	=17	=17	=17	=17	=17
*ped	*	*	*	*	*
!LO:N:vis=4	!	!	!	!	!
8BB] 8BBB\]	.	4g# 4e 4G#~/	1 3 5	.	2.ryy
4Cn 4CCn\	.	.	.	.	.
*ped	*	*	*	*	*
.	.	4a 4e-X 4A~/	.	.	.
4FFn 4FFFn\	.	.	.	.	.
*ped	*	*	*	*	*
.	.	4b#X 4g# 4d~/	.	.	.
8E [8EE\	.	.	.	.	.
!!LO:LB:g=original
=18	=18	=18	=18	=18	=18
*^	*	*^	*	*	*
*ped	*	*	*	*	*	*	*
8rF	4EE\]	.	2a/	(>4cc# 4c#\	.	f	2.ryy
(8c#\L	.	1	.	.	.	.	.
8C#\	2ryy	5	.	4ee 4e\	.	.	.
8F#\	.	2	.	.	.	.	.
8E\	.	1	[4ff# [4f#\	4ryy	.	.	.
*Xped	*	*	*	*	*	*	*
8C#\J	.	.	.	.	.	.	.
*v	*v	*	*	*	*	*	*
=19	=19	=19	=19	=19	=19	=19
*ped	*	*	*	*	*	*
!	!	!LO:TX:b:i:t=m.d.	!	!	!	!
4DD\	.	8ff#] 8f#\]	4f#<\	.	.	2.ryy
.	.	4gg# [4ff# [4dd 4g#\	.	.	.	.
*tuplet	*	*	*	*	*	*
!LO:TX:a:i:t=m.g.	!	!	!	!	!	!
!LO:TUP:a	!	!	!	!	!	!
12e\L	1	.	2ryy	.	.	.
12c#\	2	.	.	.	.	.
.	3	4aa 4ff#] 4dd] 4a\	.	.	.	.
*Xped	*	*	*	*	*	*
12A\J	.	.	.	.	.	.
8F#\L	.	.	.	.	.	.
[8G#\J	.	[8bb [8b\	.	.	.	.
*	*	*v	*v	*	*	*
=20	=20	=20	=20	=20	=20
*^	*	*	*	*	*
*ped	*	*	*	*	*	*
8G#\L]	4BBB\	.	8bb] 8b\]	.	.	2.ryy
8B\	.	1	4ccc# [4bb [4ff# 4cc#\	.	.	.
8A\	4ryy	.	.	.	.	.
8F#\	.	.	4ddd 4bb] 4ff#] 4dd\	.	.	.
*ped	*	*	*	*	*	*
!LO:TX:t=P:problem:klamra	!	!	!	!	!	!
8E\	4CC#\	.	.	.	.	.
8E#X\J)	.	2	8ccc# 8aa 8cc#\)	.	.	.
=21	=21	=21	=21	=21	=21	=21
*ped	*	*	*	*	*	*
8r	4DD\	.	8r	.	.	2.ryy
(8F#L 8D 8AA\	.	2 3 5	(4bb 4ff# 4dd 4b\	.	.	.
8A\	2ryy	.	.	.	.	.
*Xped	*	*	*	*	*	*
8F#J 8D 8AA\	.	.	4aa 4ff# 4dd 4a\	.	.	.
4E#X 4C# 4FF##X\)	.	1 3 5	.	.	.	.
.	.	.	[8gg# [8g#\	.	.	.
!!LO:LB:g=original
=22	=22	=22	=22	=22	=22	=22
*ped	*	*	*	*	*	*
8r	4DD\	.	8gg#] 8g#\]	.	.	2.ryy
(8F#L 8D 8AA\	.	.	4ff# 4f#\	.	.	.
8A\	2ryy	.	.	.	.	.
*Xped	*	*	*	*	*	*
8F#J 8D 8AA\	.	.	4ee 4e/	.	.	.
4E#X 4C# 4FF##X\)	.	.	.	.	.	.
.	.	.	[8dd [8d/	.	.	.
=23	=23	=23	=23	=23	=23	=23
*ped	*	*	*	*	*	*
8r	4EE\	.	8dd] 8d/]	.	.	2.ryy
(8F#L 8D 8AA\	.	.	4cc# 4c#/	.	.	.
8A\	2ryy	.	.	.	.	.
*Xped	*	*	*	*	*	*
8F#J 8D 8AA\	.	.	4b 4B/	.	.	.
4E#X 4C# 4FF##X\)	.	.	.	.	.	.
.	.	.	8a 8A/)	.	.	.
=24	=24	=24	=24	=24	=24	=24
*ped	*	*	*	*	*	*
8r	4EE\	.	8r	.	.	2.ryy
(8F#L 8D 8AA\	.	.	(4cc# 4c#/	.	.	.
8A\	2ryy	.	.	.	.	.
*Xped	*	*	*	*	*	*
8F#J 8D 8AA\	.	.	4b 4B/	.	.	.
4E#X 4C# 4FF##X\)	.	.	.	.	.	.
.	.	.	8a 8A/)	.	.	.
*v	*v	*	*	*	*	*
=25	=25	=25	=25	=25	=25
*	*	*^	*	*	*
*ped	*	*	*	*	*	*
(4FFFn/	.	8r	8ryy	.	.	2.ryy
.	.	4fn/	[>8a [8A\	1 4 5	.	.
8FFn\L	.	.	2a_> 2A\_	.	>	.
8Cn\	3	4e/	.	.	.	.
8Gn\	1	.	.	.	.	.
*Xped	*	*	*	*	*	*
8Fn\J)	.	8d#X/	.	.	.	.
!!LO:LB:g=original
=26	=26	=26	=26	=26	=26	=26
*ped	*	*	*	*	*	*
(4FFFn/	.	8rf	2a_> 2A\_	.	.	2.ryy
.	.	4fn/	.	.	.	.
8FFn\L	.	.	.	.	.	.
8Cn\	.	4e/	.	.	.	.
*Xped	*	*	*	*	*	*
8Gn\	.	.	(>8a]L 8A\]	.	.	.
8Fn\J)	.	8d#X/	8bJ 8B\)	.	]	.
*	*	*v	*v	*	*	*
=27	=27	=27	=27	=27	=27
*ped	*	*	*	*	*
4EEE/	.	8r	.	p	2.ryy
.	.	(4cc#\	2	.	.
(8a\L	1	.	.	.	.
8e\	2	4a/	.	.	.
8c#X\	3	.	.	.	.
8A\J	1	[8ff#\	4	.	.
=28	=28	=28	=28	=28	=28
8E/L	.	8ff#\]	.	.	2.ryy
8C#/	.	4ee\	1	.	.
8AA/	1	.	.	.	.
8EE/	.	8ccc#\L	3	.	.
8CC#/	.	8aa\	2	.	.
8AAA/J	1	8fff#\J)	.	.	.
=29	=29	=29	=29	=29	=29
*ped	*	*	*	*	*
8EEE/)	.	8r	.	pp	2.ryy
*clefG2	*	*	*	*	*
*	*	*8va	*	*	*
!	!	!LO:TX:b:i:t=quasi cadenza	!	!	!
8aaL 8ff#'\	1 3	8ddddL 8fff# 8ddd'\	.	.	.
8gg# 8ee'\	2 4	8ggg# 8eee 8bb'\	4	.	.
8ff# 8dd'\	3 5	8bbb 8ddd 8bb'\	.	.	.
8ee 8cc#'\	1 3	8eee 8ccc# 8gg#'\	4	.	.
8ddJ 8b'\	.	8ggg#J 8bb 8gg#'\	.	.	.
*	*	*X8va	*	*	*
!!LO:LB:g=original
=30	=30	=30	=30	=30	=30
8cc#L 8a'/	.	8ccc#L 8aa 8ee'\	.	.	2.ryy
8b 8g#'/	1 3	8eee 8gg# 8ee'\	.	.	.
8a 8f#'/	.	8aa 8ff# 8cc#'\	.	.	.
8g# 8e'/	.	8ccc# 8ee 8cc#'\	.	.	.
8f# 8d'/	1 3	8ff# 8dd 8a'\	.	.	.
8eJ 8c#'/	.	8aaJ 8cc# 8a'\	.	.	.
*Xped	*	*	*	*	*
=31	=31	=31	=31	=31	=31
*ped	*	*	*	*	*
!	!	!LO:TX:b:i:t=poco a poco rit.:dur=5q:ext=s:problem:text with extention lines	!	!	!
4f#: 4d: 4G#:/	.	4bb: 4ff#: 4dd: 4b:\	.	.	2.ryy
*clefF4	*	*	*	*	*
4EEE/	.	4r	.	.	.
*Xped	*	*	*	*	*
8g#>L 8e>\	1 3	(8gg#L 8ee 8b'/	1 3 5	.	.
8f#>J 8d>\	2 4	8ff#J 8dd 8a'/	1 2 4	.	.
=32	=32	=32	=32	=32	=32
*ped	*	*	*	*	*
4f#>:: 4d>:: 4G#>::\	.	4bb:: 4ff#:: 4dd:: 4b::/)	.	.	2.ryy
4EEE/	.	4r	.	.	.
*Xped	*	*	*	*	*
8g#>L 8e>\	.	8gg#L 8ee 8b'/	.	.	.
8f#>J 8d>\	.	8ff#J 8dd 8a'/	.	.	.
=33	=33	=33	=33	=33	=33
*ped	*	*	*	*	*
4b: 4f#: 4d: 4G#:\	.	4ddd: 4bb: 4ff#: 4dd:\	.	.	2.ryy
[2EEE/	.	4r	.	.	.
*Xped	*	*	*	*	*
.	.	(>4g# 4e/	3 5	.	.
=34	=34	=34	=34	=34	=34
2.EEE/]	.	2.f# 2.d 2.G#/)	1 2 4	.	2.ryy
!!LO:PB:g=original
=35||	=35||	=35||	=35||	=35||	=35||
*ped	*	*	*	*	*
!!LO:TX:a:B:t=Tempo I.
(8AA\L	.	8r	.	p	2.ryy
8e\	1	&(8cc#/L	5	.	.
8A\	.	8c#/	1	.	.
8E\	.	8f#/	3	.	.
8A\	3	8e/	.	.	.
8G#\J)	4	8c#/J	.	.	.
=36	=36	=36	=36	=36	=36
*ped	*	*	*	*	*
(8F#\L	5	4ff#\	5	.	2.ryy
8c#\	3	.	.	.	.
*	*	*Xtuplet	*	*	*
8a\	.	12ee\L	4	.	.
.	.	12cc#\	.	.	.
8e\J)	.	.	.	.	.
.	.	12a\J	.	.	.
*ped	*	*	*	*	*
(8C#\L	.	8f#/L	2	.	.
8eJ 8A\)	1 2	[>8g#/J	.	.	.
=37	=37	=37	=37	=37	=37
*	*	*^	*	*	*
*ped	*	*	*	*	*	*
(8BB\L	.	8g#\L]	2ryy	.	.	2.ryy
8F#\	3	8b\	.	5	.	.
8A\	2	8a\	.	.	.	.
8d\	1	8f#\	.	.	.	.
*Xped	*	*	*	*	*	*
8c#\	.	8e\	8ryy	1	.	.
8cn\J)	.	8e#X:\J	(>[>8ee:/	1 5	.	.
=38	=38	=38	=38	=38	=38	=38
*ped	*	*	*	*	*	*
8EEE/	.	8ee/]	8f#\&)	.	.	2.ryy
(8f#L 8d 8A\	2 3 5	4dd/	2ryy	.	.	.
8a\	.	.	.	.	.	.
*Xped	*	*	*	*	*	*
8f#J 8d 8A\	.	4cc#/	.	.	.	.
4e#X 4c# 4F##X\)	1 3 5	.	.	.	.	.
.	.	[8b/)	8ryy	.	.	.
*	*	*v	*v	*	*	*
!!LO:LB:g=original
=39	=39	=39	=39	=39	=39
*ped	*	*	*	*	*
8EEE/	.	8b/]	.	.	2.ryy
(8f#L 8d 8A\	.	(4cc#/	3	.	.
8a\	.	.	.	.	.
*Xped	*	*	*	*	*
8f#J 8d 8A\	.	4b/	.	.	.
4e#X 4c# 4F##X\)	.	.	.	.	.
.	.	8a/)	.	.	.
=40	=40	=40	=40	=40	=40
*	*	*^	*	*	*
*ped	*	*	*	*	*	*
4FFFn/	.	8r	8ryy	.	.	2.ryy
.	.	[8a [<8A/	(>4fn\	1 4 5	.	.
(8FFn/L	5	2a_ 2A/_<	.	.	.	.
8Cn/	.	.	4e\	.	.	.
8Gn/	1	.	.	.	.	.
*Xped	*	*	*	*	*	*
8Fn/J)	.	.	8d#X\)	.	.	.
=41	=41	=41	=41	=41	=41	=41
*ped	*	*	*	*	*	*
4FFFn/	.	2a_ 2A/_<	8re	.	.	2.ryy
.	.	.	(>4fn\	.	.	.
(8FFn/L	.	.	.	.	.	.
8Cn/	.	.	4e\	.	.	.
8Gn/	.	8a]L 8A/]	.	.	.	.
*Xped	*	*	*	*	*	*
8Fn/J)	.	8bJ 8B/	8d#X\)	.	.	.
*	*	*v	*v	*	*	*
=42	=42	=42	=42	=42	=42
*ped	*	*	*	*	*
(8FFF#X/L	.	8r	.	.	2.ryy
8FF#X/	5	(4a 4c#X/	2 5	.	.
8D#X/	2	.	.	.	.
8A/J)	.	8d#X 8B/)	1 3	.	.
*ped	*	*	*	*	*
8FFn'/L	.	8r	.	.	.
8G#J 8BB'/	1 3	8b 8dn'/	.	.	.
!!LO:LB:g=original
=43	=43	=43	=43	=43	=43
*ped	*	*	*	*	*
(8DDD#X/L	.	8r	.	.	2.r
8DD#X/	5	(4a 4c#/	.	.	.
8BB/	3	.	.	.	.
8F#X/J)	.	8d#X 8A/)	.	.	.
*ped	*	*	*	*	*
8DDn'/L	.	8r	.	.	.
8G#J 8BB'/	1 3	8b 8dn/	.	.	.
=44	=44	=44	=44	=44	=44
*ped	*	*	*	*	*
8C#/	.	8eee 8aa 8ee/	.	.	2.r
!LO:TX:a:i:t=m.g.	!	!	!	!	!
8ff#> 8f#>\	.	8r	.	.	.
8r	.	8aa 8ee 8a/	.	.	.
8cc#> 8c#>\	.	8r	.	.	.
*ped	*	*	*	*	*
8BB/	.	8ddd 8ff# 8dd/	.	.	.
8dd> 8e>\	.	8gg# 8ee 8g#/	.	.	.
=45	=45	=45	=45	=45	=45
*ped	*	*	*	*	*
8c#: 8E: 8AA#X:\	.	8eee: 8ggn: 8ee:/	.	.	8r
*	*	*	*	*	*8va
!	!	!	!	!	!LO:TX:a:i:t=m.d.
8cc#> 8e>\	.	8ryy	.	.	8fff#\
*ped	*	*	*	*	*
8c#: 8E: 8AAn:\	.	8aa: 8ee: 8a:/	.	.	8r
8cc#> 8e>\	.	8ryy	.	.	8gggn\
*ped	*	*	*	*	*
8B: 8E: 8GG#:\	.	8ddd: 8ff#: 8dd:/	.	.	8r
8gg#X> 8ee> 8g#>\	.	8ryy	.	.	8ggg#X\
=46	=46	=46	=46	=46	=46
*^	*	*	*	*	*
*ped	*	*	*	*	*	*
4A: 4E: 4C#: 4FF#:/	8rb>	.	2ryy	.	.	8r
!LO:TX:a:rj:i:t=m.g.	!	!	!	!	!	!
.	8ccc#>L 8ff#> 8cc#>\	.	.	.	.	8aaa\
4rC	8aa> 8ee> 8a>\	.	.	.	.	8r
.	8ff#>J 8cc#> 8f#>\	.	.	.	.	8bbb\
*ped	*	*	*	*	*	*
!	!	!	!LO:TX:a:i:t=m.d.	!	!	!
4D#X: 4FF#: 4BBB:/	8ryy	.	8bb 8dd#X/	1 3	.	8r
!LO:TX:a:i:t=m.g.	!	!	!	!	!	!
.	8ff#> 8a>\	.	8ryy	.	.	8cccc#\
*v	*v	*	*	*	*	*
*	*	*	*	*	*X8va
!!LO:LB:g=original
=47	=47	=47	=47	=47	=47
*ped	*	*	*	*	*
8EEE/	.	(<4ee\	5	f	2.ryy
.	.	.	.	>	.
(4e\	1	.	.	.	.
.	.	4a 4fn/	1 2	.	.
8d\L	.	.	.	.	.
*Xped	*	*	*	*	*
8c#\	.	8ddL 8f#X/	2 5	>	.
8B\J)	.	8g#J 8e/)	1 3	.	.
=48	=48	=48	=48	=48	=48
*^	*	*	*	*	*
*ped	*	*	*	*	*	*
8EEE/	2ryy	.	(<4ee 4gn\	2 5	.	2.ryy
(4B-X\	.	2	.	.	.	.
.	.	.	4a 4c#/	1 3	.	.
*Xped	*	*	*	*	*	*
8Gn/L	.	1	.	.	.	.
8Cn/	4EE\	2 5	8ddL 8f#/	2 5	.	.
8D/J)	.	.	8g#XJ 8B/)	1 3	]	.
=49	=49	=49	=49	=49	=49	=49
*ped	*	*	*	*	*	*
4A:: 4Fn~::/	2BB-X:: 2DD::\	.	8r	.	.	2.ryy
.	.	.	(>8dL 8B-X/	1 2	<	.
4D~/	.	.	8eJ 8cn/	1 3	.	.
.	.	.	4fn 4d/	.	[	.
*ped	*	*	*	*	*	*
!LO:TX:t=P:problem:klamra	!	!	!	!	!	!
8Gn~/L	4AA 4EE\	.	.	.	.	.
8C#X~/J	.	2	8gn 8B-X/	.	>	.
*v	*v	*	*	*	*	*
=50	=50	=50	=50	=50	=50
*ped	*	*	*	*	*
2.G-X 2.AA-X 2.EE-X/	.	2.a-X 2.cn/)	1 4	p]	2.ryy
!	!	!LO:TX:b:i:t=rit.	!	!	!
.	.	.	.	.	.
!!LO:LB:g=original
=51	=51	=51	=51	=51	=51
*ped	*	*	*	*	*
8AAAn/	.	4r	.	pp	2.ryy
(4f#\	1	.	.	.	.
.	.	4cc# 4c#~>/	.	.	.
8A\L	3	.	.	.	.
8e\	1	4cc# 4c#~>/	.	.	.
8E\J)	5	.	.	.	.
=52	=52	=52	=52	=52	=52
8AAA/	.	4r	.	.	2.ryy
(4f#\	.	.	.	.	.
.	.	[4cc# 4c#~>/	.	.	.
8A\L	.	.	.	.	.
8e\	.	4ccc# 4cc#'\]	.	.	.
8E\J)	.	.	.	.	.
=53	=53	=53	=53	=53	=53
8AAA/	.	4r	.	.	2.ryy
(4f#\	.	.	.	.	.
.	.	4cc# 4c#~>/	.	.	.
8A\L	.	.	.	.	.
8e\	.	[4cc# [4c#~>/	.	.	.
8E\J)	.	.	.	.	.
=54	=54s	=54	=54	=54	=54
8r	.	2.cc#] 2.c#/]	.	.	2.ryy
[4f#\	1	.	.	.	.
4f#] [4A\	5	.	.	.	.
*Xped	*	*	*	*	*
8e 8A;\]	.	.	.	.	.
==	==	==	==	==	==
*-	*-	*-	*-	*-	*-
!!!system-decoration: {(g1)}
!!!RDF**kern: i = editorial accidental
!!!RDF**kern: > = above
!!!RDF**kern: < = below
!!!RDF**kern: N = linked
!!!RDF**dynam: > = "dim.", fontstyle= "italic"
!!!ENC: Filip Voros
!!!EED: Katarzyna Serwa
!!!END: 2023-10-13
!!!EEV: 2023-10-24
